X:257
T: HIER SITZ ICH AUF ROSEN MIT VEILCHEN BEKRAENZT
N: B0307
O: Europa, Mitteleuropa, Deutschland
R: Geselligkeits -, Trink - Lied, Freude
M: 6/8
L: 1/16
K: A
E2 | A3GA2B2A2B2 | c3dc2B4B2 | c3dc2B4
Ac | e2e2e2e3dc2 | d2d2d2d2c2B2
c3de2e2d2c2 | B3AB2A4
Ac | e2e2e2e3dc2 | d2d2d2d2c2B2
c3de2e2d2c2 | B3AB2A4

